X:214
T:The new Custom house
R:Reel
P:APB Martin Hayes
S:Martin Hayes Concert- Santa Cruz 1999
Z:Transcription, chords:Mike Long
M:C|
L:1/8
K:C
"Dm"ADFD "Am"EGAc-|"F"cAGE "G"CDEG|\
"Dm"ADFD "Am"(3(EFG) AB|"F"cBcA "G"dcAG|\
"Dm"(3(A_BA) FD "Am"EGAc-|
"F"cAGE "G"CDEG|"Dm"(3(A_BA) FD "Am"EGAd|"C"cAGc "Dm"ADD2:|\
|:"Dm"Ad (3(d^cd) Adfd|"Am"eA (3(Bcd) "C"eg{a}ge|"Dm"~d4 Adfd|
"Am"ceag "Dm"ed{^c}d=c|\
"Dm"Ad (3(d^cd) Adfd|"Am"eA (3(Bcd) "C"egga-|"Dm"afge "(Am/F)"fede|"C"ceag "Dm"eddc:|
